packages/icons/svg/Outline/folder-remove.svg

<svg width="24" height="24" viewBox="0 0 24 24" fill="none" xmlns="http://www.w3.org/2000/svg">
<g id="Icon/Outline/folder-remove">
<path id="Mask" fill-rule="evenodd" clip-rule="evenodd" d="M14 13H10C9.45 13 9 13.45 9 14C9 14.55 9.45 15 10 15H14C14.55 15 15 14.55 15 14C15 13.45 14.55 13 14 13ZM20 18.0684C20 18.3064 19.776 18.5004 19.5 18.5004H4.5C4.224 18.5004 4 18.3064 4 18.0684V13.7554V5.93143C4 5.69343 4.224 5.50043 4.5 5.50043H8.626L11.226 8.67843C11.416 8.91143 11.7 9.04643 12 9.04643H19.5C19.776 9.04643 20 9.23943 20 9.47843V18.0684ZM19.5 7.04643H12.474L9.875 3.86743C9.685 3.63443 9.4 3.50043 9.101 3.50043H4.5C3.122 3.50043 2 4.59043 2 5.93143V18.0684C2 19.4094 3.122 20.5004 4.5 20.5004H19.5C20.878 20.5004 22 19.4094 22 18.0684V9.47843C22 8.13643 20.878 7.04643 19.5 7.04643Z" fill="#000000"/>
</g>
</svg>

<svg fill="none" height="24" viewBox="0 0 24 24" width="24" xmlns="http://www.w3.org/2000/svg"><path clip-rule="evenodd" d="m14 13h-4.00002c-.55 0-1 .45-1 1s.45 1 1 1h4.00002c.55 0 1-.45 1-1s-.45-1-1-1zm6 5.0686c0 .238-.224.432-.5.432h-14.99998c-.276 0-.5-.194-.5-.432v-4.313-7.82405c0-.238.224-.431.5-.431h4.126l2.59998 3.178c.19.233.474.368.774.368h7.5c.276 0 .5.193.5.432zm-.5-11.02211h-7.026l-2.599-3.179c-.19-.233-.475-.367-.774-.367h-4.601c-1.378 0-2.5 1.09-2.5 2.431v12.13701c0 1.341 1.122 2.432 2.5 2.432h15c1.378 0 2.5-1.091 2.5-2.432v-8.59001c0-1.342-1.122-2.432-2.5-2.432z" fill="#6b7280" fill-rule="evenodd"/></svg>
